pail-plus-outline.svg

<svg fill="currentColor" viewBox="0 0 24 24"><path d="M4 6H3V4h18v2h-1l-1.4 7c-.77.07-1.49.26-2.15.58L17.96 6H6.04l.46 2.22-1.85 1.05zm8.86 2a.976.976 0 0 0-1.36-.37l-8.23 4.75a.998.998 0 1 0 1 1.73l8.23-4.75c.47-.27.64-.89.36-1.36M13 19H8.64l-.91-4.57L5.9 15.5 7 21h6.35c-.22-.63-.35-1.3-.35-2m5-4v3h-3v2h3v3h2v-3h3v-2h-3v-3z"/></svg>

<svg  viewBox="0 0 24 24" fill="currentColor"><path  d="M4 6H3V4H21V6H20L18.6 13C17.83 13.07 17.11 13.26 16.45 13.58L17.96 6H6.04L6.5 8.22L4.65 9.27L4 6M12.86 8C12.58 7.5 11.97 7.35 11.5 7.63L3.27 12.38C2.79 12.66 2.62 13.27 2.9 13.75C3.18 14.23 3.79 14.39 4.27 14.11L12.5 9.36C12.97 9.09 13.14 8.47 12.86 8M13 19H8.64L7.73 14.43L5.9 15.5L7 21H13.35C13.13 20.37 13 19.7 13 19M18 15V18H15V20H18V23H20V20H23V18H20V15H18Z"/></svg>
